src/assets/icons/messages-bulles.svg

<svg width="24" height="24" viewBox="0 0 24 24" fill="none" xmlns="http://www.w3.org/2000/svg">
<path d="M18.4704 16.83L18.8604 19.99C18.9604 20.82 18.0704 21.4 17.3604 20.97L13.9004 18.91C13.6604 18.77 13.6004 18.47 13.7304 18.23C14.2304 17.31 14.5004 16.27 14.5004 15.23C14.5004 11.57 11.3604 8.59 7.50038 8.59C6.71038 8.59 5.94038 8.71 5.22038 8.95C4.85038 9.07 4.49038 8.73 4.58038 8.35C5.49038 4.71 8.99038 2 13.1704 2C18.0504 2 22.0004 5.69 22.0004 10.24C22.0004 12.94 20.6104 15.33 18.4704 16.83Z" fill="white"/>
<path d="M13 15.2298C13 16.4198 12.56 17.5198 11.82 18.3898C10.83 19.5898 9.26 20.3598 7.5 20.3598L4.89 21.9098C4.45 22.1798 3.89 21.8098 3.95 21.2998L4.2 19.3298C2.86 18.3998 2 16.9098 2 15.2298C2 13.4698 2.94 11.9198 4.38 10.9998C5.27 10.4198 6.34 10.0898 7.5 10.0898C10.54 10.0898 13 12.3898 13 15.2298Z" fill="white"/>
</svg>

<svg xmlns="http://www.w3.org/2000/svg" width="24" height="24" fill="none"><path fill="#fff" d="m18.47 16.83.39 3.16c.1.83-.79 1.41-1.5.98l-3.46-2.06c-.24-.14-.3-.44-.17-.68.5-.92.77-1.96.77-3 0-3.66-3.14-6.64-7-6.64-.79 0-1.56.12-2.28.36a.505.505 0 0 1-.64-.6C5.49 4.71 8.99 2 13.17 2 18.05 2 22 5.69 22 10.24c0 2.7-1.39 5.09-3.53 6.59Z"/><path fill="#fff" d="M13 15.23c0 1.19-.44 2.29-1.18 3.16-.99 1.2-2.56 1.97-4.32 1.97l-2.61 1.55c-.44.27-1-.1-.94-.61l.25-1.97C2.86 18.4 2 16.91 2 15.23c0-1.76.94-3.31 2.38-4.23.89-.58 1.96-.91 3.12-.91 3.04 0 5.5 2.3 5.5 5.14Z"/></svg>
